X: 14165
T: From Here Down
R: reel
M: 4/4
K: Dminor
|:DAdA cAdA|FEDF EA,CE|DAdA cAdA|DE (3EEE GEcE|
DA (3AAA cAdA|FEDF EA, (3A,A,A,|B,CDB, CDEC|DEFD GFEF:|
|:D2 (3DDD DEFD|B,CDB, CDEC|DA (3AAA cAdA|de (3eee edcA|
defd eA (3AAA|GABG AD (3DDD|FGAF GC (3CCC|EA,CE D2 z C:|

